src/icons/hicolor/scalable/apps/yast-instserver.svg

<?xml version="1.0" encoding="UTF-8"?>
<svg width="128" height="128" version="1.1" viewBox="0 0 128 128.00001" xmlns="http://www.w3.org/2000/svg">
<defs>
<linearGradient id="a" x1="2" x2="30" y1="27" y2="27" gradientTransform="matrix(4,0,0,4,0,-4)" gradientUnits="userSpaceOnUse">
<stop stop-color="#5e5c64" offset="0"/>
<stop stop-color="#9a9996" offset=".035714"/>
<stop stop-color="#5e5c64" offset=".071429"/>
<stop stop-color="#5e5c64" offset=".92857"/>
<stop stop-color="#9a9996" offset=".96429"/>
<stop stop-color="#5e5c64" offset="1"/>
</linearGradient>
</defs>
<rect x="8" y="24" width="112" height="24" ry="4" fill="#5e5c64"/>
<rect x="8" y="48" width="112" height="24" ry="4" fill="#5e5c64"/>
<rect x="8" y="72" width="112" height="24" ry="4.2348" fill="#5e5c64"/>
<rect x="8" y="92" width="112" height="20" ry="4" fill="url(#a)"/>
<rect x="8" y="12" width="112" height="20" ry="4" fill="#9a9996"/>
<rect x="8" y="36" width="112" height="20" ry="4" fill="#9a9996"/>
<rect x="8" y="60" width="112" height="20" ry="4" fill="#9a9996"/>
<rect x="8" y="84" width="112" height="20" ry="4" fill="#9a9996"/>
<rect x="56" y="16" width="60" height="12" ry="0" fill="#3d3846"/>
<rect x="56" y="20" width="60" height="8" ry="0" fill="#5e5c64"/>
<rect x="56" y="40" width="60" height="12" ry="0" fill="#3d3846"/>
<rect x="56" y="44" width="60" height="8" ry="0" fill="#5e5c64"/>
<rect x="56" y="64" width="60" height="12" ry="0" fill="#3d3846"/>
<rect x="56" y="68" width="60" height="8" ry="0" fill="#5e5c64"/>
<rect x="56" y="88" width="60" height="12" ry="0" fill="#3d3846"/>
<rect x="56" y="92" width="60" height="8" ry="0" fill="#5e5c64"/>
<rect x="16" y="16" width="4" height="8" ry="2" fill="#5e5c64"/>
<rect x="16" y="20" width="4" height="4" ry="2" fill="#f6d32d"/>
<rect x="24" y="16" width="4" height="8" ry="2" fill="#5e5c64"/>
<rect x="24" y="20" width="4" height="4" ry="2" fill="#33d17a"/>
<rect x="16" y="40" width="4" height="8" ry="2" fill="#5e5c64"/>
<rect x="16" y="44" width="4" height="4" ry="2" fill="#33d17a"/>
<rect x="24" y="40" width="4" height="8" ry="2" fill="#5e5c64"/>
<rect x="24" y="44" width="4" height="4" ry="2" fill="#e01b24"/>
<rect x="16" y="64" width="4" height="8" ry="2" fill="#5e5c64"/>
<rect x="16" y="68" width="4" height="4" ry="2" fill="#e01b24"/>
<rect x="24" y="64" width="4" height="8" ry="2" fill="#5e5c64"/>
<rect x="24" y="68" width="4" height="4" ry="2" fill="#f6d32d"/>
<rect x="16" y="88" width="4" height="8" ry="2" fill="#5e5c64"/>
<rect x="16" y="92" width="4" height="4" ry="2" fill="#f6d32d"/>
<rect x="24" y="88" width="4" height="8" ry="2" fill="#5e5c64"/>
<rect x="24" y="92" width="4" height="4" ry="2" fill="#33d17a"/>
<rect x="60" y="44" width="4" height="8" fill="#3d3846"/>
<rect x="60" y="40" width="4" height="4" fill="#241f31"/>
<rect x="68" y="44" width="4" height="8" fill="#3d3846"/>
<rect x="68" y="40" width="4" height="4" fill="#241f31"/>
<rect x="76" y="44" width="4" height="8" fill="#3d3846"/>
<rect x="76" y="40" width="4" height="4" fill="#241f31"/>
<rect x="84" y="44" width="4" height="8" fill="#3d3846"/>
<rect x="84" y="40" width="4" height="4" fill="#241f31"/>
<rect x="92" y="44" width="4" height="8" fill="#3d3846"/>
<rect x="92" y="40" width="4" height="4" fill="#241f31"/>
<rect x="100" y="44" width="4" height="8" fill="#3d3846"/>
<rect x="100" y="40" width="4" height="4" fill="#241f31"/>
<rect x="108" y="44" width="4" height="8" fill="#3d3846"/>
<rect x="108" y="40" width="4" height="4" fill="#241f31"/>
<rect x="60" y="20" width="4" height="8" fill="#3d3846"/>
<rect x="60" y="16" width="4" height="4" fill="#241f31"/>
<rect x="68" y="20" width="4" height="8" fill="#3d3846"/>
<rect x="68" y="16" width="4" height="4" fill="#241f31"/>
<rect x="76" y="20" width="4" height="8" fill="#3d3846"/>
<rect x="76" y="16" width="4" height="4" fill="#241f31"/>
<rect x="84" y="20" width="4" height="8" fill="#3d3846"/>
<rect x="84" y="16" width="4" height="4" fill="#241f31"/>
<rect x="92" y="20" width="4" height="8" fill="#3d3846"/>
<rect x="92" y="16" width="4" height="4" fill="#241f31"/>
<rect x="100" y="20" width="4" height="8" fill="#3d3846"/>
<rect x="100" y="16" width="4" height="4" fill="#241f31"/>
<rect x="108" y="20" width="4" height="8" fill="#3d3846"/>
<rect x="108" y="16" width="4" height="4" fill="#241f31"/>
<rect x="60" y="68" width="4" height="8" fill="#3d3846"/>
<rect x="60" y="64" width="4" height="4" fill="#241f31"/>
<rect x="68" y="68" width="4" height="8" fill="#3d3846"/>
<rect x="68" y="64" width="4" height="4" fill="#241f31"/>
<rect x="76" y="68" width="4" height="8" fill="#3d3846"/>
<rect x="76" y="64" width="4" height="4" fill="#241f31"/>
<rect x="84" y="68" width="4" height="8" fill="#3d3846"/>
<rect x="84" y="64" width="4" height="4" fill="#241f31"/>
<rect x="92" y="68" width="4" height="8" fill="#3d3846"/>
<rect x="92" y="64" width="4" height="4" fill="#241f31"/>
<rect x="100" y="68" width="4" height="8" fill="#3d3846"/>
<rect x="100" y="64" width="4" height="4" fill="#241f31"/>
<rect x="108" y="68" width="4" height="8" fill="#3d3846"/>
<rect x="108" y="64" width="4" height="4" fill="#241f31"/>
<rect x="60" y="92" width="4" height="8" fill="#3d3846"/>
<rect x="60" y="88" width="4" height="4" fill="#241f31"/>
<rect x="68" y="92" width="4" height="8" fill="#3d3846"/>
<rect x="68" y="88" width="4" height="4" fill="#241f31"/>
<rect x="76" y="92" width="4" height="8" fill="#3d3846"/>
<rect x="76" y="88" width="4" height="4" fill="#241f31"/>
<rect x="84" y="92" width="4" height="8" fill="#3d3846"/>
<rect x="84" y="88" width="4" height="4" fill="#241f31"/>
<rect x="92" y="92" width="4" height="8" fill="#3d3846"/>
<rect x="92" y="88" width="4" height="4" fill="#241f31"/>
<rect x="100" y="92" width="4" height="8" fill="#3d3846"/>
<rect x="100" y="88" width="4" height="4" fill="#241f31"/>
<rect x="108" y="92" width="4" height="8" fill="#3d3846"/>
<rect x="108" y="88" width="4" height="4" fill="#241f31"/>
<rect x="64" y="64" width="64" height="64" ry="4" fill="#f6f5f4"/>
<path d="m96 68a28 28 0 0 0 -28 28 28 28 0 0 0 28 28 28 28 0 0 0 28 -28 28 28 0 0 0 -28 -28zm0 4a24 24 0 0 1 24 24 24 24 0 0 1 -24 24 24 24 0 0 1 -24 -24 24 24 0 0 1 24 -24z" fill="#3d3846"/>
<path d="m96 76a20 20 0 0 0 -20 20 20 20 0 0 0 20 20 20 20 0 0 0 20 -20 20 20 0 0 0 -20 -20zm0 4a16 16 0 0 1 16 16 16 16 0 0 1 -16 16 16 16 0 0 1 -16 -16 16 16 0 0 1 16 -16z" fill="#3d3846"/>
<path d="m96 84a12 12 0 0 0 -12 12 12 12 0 0 0 12 12 12 12 0 0 0 12 -12 12 12 0 0 0 -12 -12zm0 4a8 8 0 0 1 8 8 8 8 0 0 1 -8 8 8 8 0 0 1 -8 -8 8 8 0 0 1 8 -8z" fill="#3d3846"/>
<circle cx="96" cy="96" r="4" fill="#3d3846"/>
</svg>

<?xml version="1.0" encoding="UTF-8" standalone="no"?>
<svg
   xmlns:dc="http://purl.org/dc/elements/1.1/"
   xmlns:cc="http://creativecommons.org/ns#"
   xmlns:rdf="http://www.w3.org/1999/02/22-rdf-syntax-ns#"
   xmlns:svg="http://www.w3.org/2000/svg"
   xmlns="http://www.w3.org/2000/svg"
   id="svg205"
   viewBox="0 0 128 128.00001"
   version="1.1"
   height="128"
   width="128">
  <defs
     id="defs15">
    <linearGradient
       gradientUnits="userSpaceOnUse"
       gradientTransform="matrix(4,0,0,4,0,-4)"
       y2="27"
       y1="27"
       x2="30"
       x1="2"
       id="a">
      <stop
         id="stop2"
         offset="0"
         stop-color="#5e5c64" />
      <stop
         id="stop4"
         offset=".035714"
         stop-color="#9a9996" />
      <stop
         id="stop6"
         offset=".071429"
         stop-color="#5e5c64" />
      <stop
         id="stop8"
         offset=".92857"
         stop-color="#5e5c64" />
      <stop
         id="stop10"
         offset=".96429"
         stop-color="#9a9996" />
      <stop
         id="stop12"
         offset="1"
         stop-color="#5e5c64" />
    </linearGradient>
  </defs>
  <metadata
     id="metadata17">
    <rdf:RDF>
      <cc:Work
         rdf:about="">
        <dc:format>image/svg+xml</dc:format>
        <dc:type
           rdf:resource="http://purl.org/dc/dcmitype/StillImage" />
        <dc:title></dc:title>
      </cc:Work>
    </rdf:RDF>
  </metadata>
  <rect
     style="fill:#5e5c64;stroke-width:4"
     id="rect19"
     ry="4"
     height="24"
     width="112"
     y="24"
     x="8" />
  <rect
     style="fill:#5e5c64;stroke-width:4"
     id="rect21"
     ry="4"
     height="24"
     width="112"
     y="47.999996"
     x="8" />
  <rect
     style="fill:#5e5c64;stroke-width:4"
     id="rect23"
     ry="4.2347999"
     height="24"
     width="112"
     y="71.999992"
     x="8" />
  <rect
     style="fill:url(#a);stroke-width:4"
     id="rect25"
     ry="4"
     height="20"
     width="112"
     y="91.999992"
     x="8" />
  <rect
     style="fill:#9a9996;stroke-width:4"
     id="rect27"
     ry="4"
     height="20"
     width="112"
     y="11.999992"
     x="8" />
  <rect
     style="fill:#9a9996;stroke-width:4"
     id="rect29"
     ry="4"
     height="20"
     width="112"
     y="35.999989"
     x="8" />
  <rect
     style="fill:#9a9996;stroke-width:4"
     id="rect31"
     ry="4"
     height="20"
     width="112"
     y="60.000004"
     x="8" />
  <rect
     style="fill:#9a9996;stroke-width:4"
     id="rect33"
     ry="4"
     height="20"
     width="112"
     y="84"
     x="8" />
  <rect
     style="fill:#3d3846;stroke-width:4"
     id="rect35"
     ry="0"
     height="12"
     width="60"
     y="15.999985"
     x="56" />
  <rect
     style="fill:#5e5c64;stroke-width:4"
     id="rect37"
     ry="0"
     height="8"
     width="60"
     y="20"
     x="56" />
  <rect
     style="fill:#3d3846;stroke-width:4"
     id="rect39"
     ry="0"
     height="12"
     width="60"
     y="40.000004"
     x="56" />
  <rect
     style="fill:#5e5c64;stroke-width:4"
     id="rect41"
     ry="0"
     height="8"
     width="60"
     y="44"
     x="56" />
  <rect
     style="fill:#3d3846;stroke-width:4"
     id="rect43"
     ry="0"
     height="12"
     width="60"
     y="64"
     x="56" />
  <rect
     style="fill:#5e5c64;stroke-width:4"
     id="rect45"
     ry="0"
     height="8"
     width="60"
     y="68"
     x="56" />
  <rect
     style="fill:#3d3846;stroke-width:4"
     id="rect47"
     ry="0"
     height="12"
     width="60"
     y="88"
     x="56" />
  <rect
     style="fill:#5e5c64;stroke-width:4"
     id="rect49"
     ry="0"
     height="8"
     width="60"
     y="91.999992"
     x="56" />
  <rect
     style="fill:#5e5c64;stroke-width:4"
     id="rect51"
     ry="2"
     height="8"
     width="4"
     y="15.999985"
     x="16" />
  <rect
     style="fill:#f6d32d;stroke-width:4"
     id="rect53"
     ry="2"
     height="4"
     width="4"
     y="20"
     x="16" />
  <rect
     style="fill:#5e5c64;stroke-width:4"
     id="rect55"
     ry="2"
     height="8"
     width="4"
     y="15.999985"
     x="24" />
  <rect
     style="fill:#33d17a;stroke-width:4"
     id="rect57"
     ry="2"
     height="4"
     width="4"
     y="20"
     x="24" />
  <rect
     style="fill:#5e5c64;stroke-width:4"
     id="rect59"
     ry="2"
     height="8"
     width="4"
     y="40.000004"
     x="16" />
  <rect
     style="fill:#33d17a;stroke-width:4"
     id="rect61"
     ry="2"
     height="4"
     width="4"
     y="44"
     x="16" />
  <rect
     style="fill:#5e5c64;stroke-width:4"
     id="rect63"
     ry="2"
     height="8"
     width="4"
     y="40.000004"
     x="24" />
  <rect
     style="fill:#e01b24;stroke-width:4"
     id="rect65"
     ry="2"
     height="4"
     width="4"
     y="44"
     x="24" />
  <rect
     style="fill:#5e5c64;stroke-width:4"
     id="rect67"
     ry="2"
     height="8"
     width="4"
     y="64"
     x="16" />
  <rect
     style="fill:#e01b24;stroke-width:4"
     id="rect69"
     ry="2"
     height="4"
     width="4"
     y="68"
     x="16" />
  <rect
     style="fill:#5e5c64;stroke-width:4"
     id="rect71"
     ry="2"
     height="8"
     width="4"
     y="64"
     x="24" />
  <rect
     style="fill:#f6d32d;stroke-width:4"
     id="rect73"
     ry="2"
     height="4"
     width="4"
     y="68"
     x="24" />
  <rect
     style="fill:#5e5c64;stroke-width:4"
     id="rect75"
     ry="2"
     height="8"
     width="4"
     y="88"
     x="16" />
  <rect
     style="fill:#f6d32d;stroke-width:4"
     id="rect77"
     ry="2"
     height="4"
     width="4"
     y="91.999992"
     x="16" />
  <rect
     style="fill:#5e5c64;stroke-width:4"
     id="rect79"
     ry="2"
     height="8"
     width="4"
     y="88"
     x="24" />
  <rect
     style="fill:#33d17a;stroke-width:4"
     id="rect81"
     ry="2"
     height="4"
     width="4"
     y="91.999992"
     x="24" />
  <rect
     style="fill:#3d3846;stroke-width:4"
     id="rect83"
     height="8"
     width="4"
     y="44"
     x="60" />
  <rect
     style="fill:#241f31;stroke-width:4"
     id="rect85"
     height="4"
     width="4"
     y="40.000004"
     x="60" />
  <rect
     style="fill:#3d3846;stroke-width:4"
     id="rect87"
     height="8"
     width="4"
     y="44"
     x="68" />
  <rect
     style="fill:#241f31;stroke-width:4"
     id="rect89"
     height="4"
     width="4"
     y="40.000004"
     x="68" />
  <rect
     style="fill:#3d3846;stroke-width:4"
     id="rect91"
     height="8"
     width="4"
     y="44"
     x="76" />
  <rect
     style="fill:#241f31;stroke-width:4"
     id="rect93"
     height="4"
     width="4"
     y="40.000004"
     x="76" />
  <rect
     style="fill:#3d3846;stroke-width:4"
     id="rect95"
     height="8"
     width="4"
     y="44"
     x="84" />
  <rect
     style="fill:#241f31;stroke-width:4"
     id="rect97"
     height="4"
     width="4"
     y="40.000004"
     x="84" />
  <rect
     style="fill:#3d3846;stroke-width:4"
     id="rect99"
     height="8"
     width="4"
     y="44"
     x="92" />
  <rect
     style="fill:#241f31;stroke-width:4"
     id="rect101"
     height="4"
     width="4"
     y="40.000004"
     x="92" />
  <rect
     style="fill:#3d3846;stroke-width:4"
     id="rect103"
     height="8"
     width="4"
     y="44"
     x="100" />
  <rect
     style="fill:#241f31;stroke-width:4"
     id="rect105"
     height="4"
     width="4"
     y="40.000004"
     x="100" />
  <rect
     style="fill:#3d3846;stroke-width:4"
     id="rect107"
     height="8"
     width="4"
     y="44"
     x="108" />
  <rect
     style="fill:#241f31;stroke-width:4"
     id="rect109"
     height="4"
     width="4"
     y="40.000004"
     x="108" />
  <rect
     style="fill:#3d3846;stroke-width:4"
     id="rect111"
     height="8"
     width="4"
     y="20"
     x="60" />
  <rect
     style="fill:#241f31;stroke-width:4"
     id="rect113"
     height="4"
     width="4"
     y="15.999985"
     x="60" />
  <rect
     style="fill:#3d3846;stroke-width:4"
     id="rect115"
     height="8"
     width="4"
     y="20"
     x="68" />
  <rect
     style="fill:#241f31;stroke-width:4"
     id="rect117"
     height="4"
     width="4"
     y="15.999985"
     x="68" />
  <rect
     style="fill:#3d3846;stroke-width:4"
     id="rect119"
     height="8"
     width="4"
     y="20"
     x="76" />
  <rect
     style="fill:#241f31;stroke-width:4"
     id="rect121"
     height="4"
     width="4"
     y="15.999985"
     x="76" />
  <rect
     style="fill:#3d3846;stroke-width:4"
     id="rect123"
     height="8"
     width="4"
     y="20"
     x="84" />
  <rect
     style="fill:#241f31;stroke-width:4"
     id="rect125"
     height="4"
     width="4"
     y="15.999985"
     x="84" />
  <rect
     style="fill:#3d3846;stroke-width:4"
     id="rect127"
     height="8"
     width="4"
     y="20"
     x="92" />
  <rect
     style="fill:#241f31;stroke-width:4"
     id="rect129"
     height="4"
     width="4"
     y="15.999985"
     x="92" />
  <rect
     style="fill:#3d3846;stroke-width:4"
     id="rect131"
     height="8"
     width="4"
     y="20"
     x="100" />
  <rect
     style="fill:#241f31;stroke-width:4"
     id="rect133"
     height="4"
     width="4"
     y="15.999985"
     x="100" />
  <rect
     style="fill:#3d3846;stroke-width:4"
     id="rect135"
     height="8"
     width="4"
     y="20"
     x="108" />
  <rect
     style="fill:#241f31;stroke-width:4"
     id="rect137"
     height="4"
     width="4"
     y="15.999985"
     x="108" />
  <rect
     style="fill:#3d3846;stroke-width:4"
     id="rect139"
     height="8"
     width="4"
     y="68"
     x="60" />
  <rect
     style="fill:#241f31;stroke-width:4"
     id="rect141"
     height="4"
     width="4"
     y="64"
     x="60" />
  <rect
     style="fill:#3d3846;stroke-width:4"
     id="rect143"
     height="8"
     width="4"
     y="68"
     x="68" />
  <rect
     style="fill:#241f31;stroke-width:4"
     id="rect145"
     height="4"
     width="4"
     y="64"
     x="68" />
  <rect
     style="fill:#3d3846;stroke-width:4"
     id="rect147"
     height="8"
     width="4"
     y="68"
     x="76" />
  <rect
     style="fill:#241f31;stroke-width:4"
     id="rect149"
     height="4"
     width="4"
     y="64"
     x="76" />
  <rect
     style="fill:#3d3846;stroke-width:4"
     id="rect151"
     height="8"
     width="4"
     y="68"
     x="84" />
  <rect
     style="fill:#241f31;stroke-width:4"
     id="rect153"
     height="4"
     width="4"
     y="64"
     x="84" />
  <rect
     style="fill:#3d3846;stroke-width:4"
     id="rect155"
     height="8"
     width="4"
     y="68"
     x="92" />
  <rect
     style="fill:#241f31;stroke-width:4"
     id="rect157"
     height="4"
     width="4"
     y="64"
     x="92" />
  <rect
     style="fill:#3d3846;stroke-width:4"
     id="rect159"
     height="8"
     width="4"
     y="68"
     x="100" />
  <rect
     style="fill:#241f31;stroke-width:4"
     id="rect161"
     height="4"
     width="4"
     y="64"
     x="100" />
  <rect
     style="fill:#3d3846;stroke-width:4"
     id="rect163"
     height="8"
     width="4"
     y="68"
     x="108" />
  <rect
     style="fill:#241f31;stroke-width:4"
     id="rect165"
     height="4"
     width="4"
     y="64"
     x="108" />
  <rect
     style="fill:#3d3846;stroke-width:4"
     id="rect167"
     height="8"
     width="4"
     y="91.999992"
     x="60" />
  <rect
     style="fill:#241f31;stroke-width:4"
     id="rect169"
     height="4"
     width="4"
     y="88"
     x="60" />
  <rect
     style="fill:#3d3846;stroke-width:4"
     id="rect171"
     height="8"
     width="4"
     y="91.999992"
     x="68" />
  <rect
     style="fill:#241f31;stroke-width:4"
     id="rect173"
     height="4"
     width="4"
     y="88"
     x="68" />
  <rect
     style="fill:#3d3846;stroke-width:4"
     id="rect175"
     height="8"
     width="4"
     y="91.999992"
     x="76" />
  <rect
     style="fill:#241f31;stroke-width:4"
     id="rect177"
     height="4"
     width="4"
     y="88"
     x="76" />
  <rect
     style="fill:#3d3846;stroke-width:4"
     id="rect179"
     height="8"
     width="4"
     y="91.999992"
     x="84" />
  <rect
     style="fill:#241f31;stroke-width:4"
     id="rect181"
     height="4"
     width="4"
     y="88"
     x="84" />
  <rect
     style="fill:#3d3846;stroke-width:4"
     id="rect183"
     height="8"
     width="4"
     y="91.999992"
     x="92" />
  <rect
     style="fill:#241f31;stroke-width:4"
     id="rect185"
     height="4"
     width="4"
     y="88"
     x="92" />
  <rect
     style="fill:#3d3846;stroke-width:4"
     id="rect187"
     height="8"
     width="4"
     y="91.999992"
     x="100" />
  <rect
     style="fill:#241f31;stroke-width:4"
     id="rect189"
     height="4"
     width="4"
     y="88"
     x="100" />
  <rect
     style="fill:#3d3846;stroke-width:4"
     id="rect191"
     height="8"
     width="4"
     y="91.999992"
     x="108" />
  <rect
     style="fill:#241f31;stroke-width:4"
     id="rect193"
     height="4"
     width="4"
     y="88"
     x="108" />
  <rect
     style="fill:#f6f5f4;stroke-width:4"
     id="rect195"
     ry="4"
     height="64"
     width="64"
     y="64"
     x="64" />
  <path
     style="fill:#3d3846;stroke-width:4"
     id="path197"
     d="m 96,67.999996 a 28,28 0 0 0 -28,28 A 28,28 0 0 0 96,124 a 28,28 0 0 0 28,-28.000004 28,28 0 0 0 -28,-28 z m 0,4 a 24,24 0 0 1 24,24 A 24,24 0 0 1 96,120 24,24 0 0 1 72,95.999996 a 24,24 0 0 1 24,-24 z" />
  <path
     style="fill:#3d3846;stroke-width:4"
     id="path199"
     d="m 96,75.999996 a 20,20 0 0 0 -20,20 A 20,20 0 0 0 96,116 a 20,20 0 0 0 20,-20.000004 20,20 0 0 0 -20,-20 z m 0,4 a 16,16 0 0 1 16,16 A 16,16 0 0 1 96,112 16,16 0 0 1 80,95.999996 a 16,16 0 0 1 16,-16 z" />
  <path
     style="fill:#3d3846;stroke-width:4"
     id="path201"
     d="m 96,83.999996 a 12,12 0 0 0 -12,12 A 12,12 0 0 0 96,108 a 12,12 0 0 0 12,-12.000004 12,12 0 0 0 -12,-12 z m 0,4 a 8,8 0 0 1 8,8 A 8,8 0 0 1 96,104 a 8,8 0 0 1 -8,-8.000004 8,8 0 0 1 8,-8 z" />
  <circle
     style="fill:#3d3846;stroke-width:4"
     id="circle203"
     r="4"
     cy="95.999985"
     cx="96" />
</svg>
